packages/web-icons/svgs/arrow_11_down.svg

<svg viewBox="0 0 48 48" xmlns="http://www.w3.org/2000/svg" class="ridi_icon"><path d="M31.5 17.8H16.4c-1.7 0-2.1 1.4-1 3.1l6.5 10.9c1.1 1.7 2.9 1.7 4 0l6.6-10.9c1.2-1.8.7-3.1-1-3.1zM24 0C10.7 0 0 10.7 0 24s10.7 24 24 24 24-10.7 24-24S37.3 0 24 0zm16.8 35.4c-.7 1.1-1.6 2.1-2.5 3-.9.9-1.9 1.8-3 2.5s-2.2 1.4-3.4 1.9c-2.5 1.1-5.2 1.6-7.9 1.6s-5.4-.5-7.9-1.6c-1.2-.5-2.4-1.1-3.5-1.9-1.1-.7-2.1-1.6-3-2.5-.9-.9-1.8-1.9-2.5-3s-1.4-2.2-1.9-3.5c-1.1-2.5-1.6-5.2-1.6-7.9s.5-5.4 1.6-7.9c.5-1.2 1.1-2.4 1.9-3.5.7-1.1 1.6-2.1 2.5-3 .9-.9 1.9-1.8 3-2.5s2.2-1.4 3.5-1.9c2.5-1.1 5.2-1.6 7.9-1.6s5.4.5 7.9 1.6c1.2.5 2.4 1.1 3.4 1.9 1.1.7 2.1 1.6 3 2.5.9.9 1.8 1.9 2.5 3s1.4 2.2 1.9 3.5c1.1 2.5 1.6 5.2 1.6 7.9s-.5 5.4-1.6 7.9c-.5 1.2-1.1 2.4-1.9 3.5z"/></svg>

<?xml version="1.0" encoding="UTF-8"?>
<svg width="48px" height="48px" viewBox="0 0 48 48" version="1.1" xmlns="http://www.w3.org/2000/svg">
  <!-- Generator: Sketch 41.2 (35397) - http://www.bohemiancoding.com/sketch -->
  <title>arrow_11_down</title>
  <desc>Created with Sketch.</desc>
  <defs></defs>
  <g id="Page-1" stroke="none" stroke-width="1" fill="none" fill-rule="evenodd">
    <g id="arrow_11_down" fill="#000000">
      <g id="Layer_1">
        <path d="M31.5,17.8 L16.4,17.8 C14.7,17.8 14.3,19.2 15.4,20.9 L21.9,31.8 C23,33.5 24.8,33.5 25.9,31.8 L32.5,20.9 C33.7,19.1 33.2,17.8 31.5,17.8 Z M24,0 C10.7,0 0,10.7 0,24 C0,37.3 10.7,48 24,48 C37.3,48 48,37.3 48,24 C48,10.7 37.3,0 24,0 Z M40.8,35.4 C40.1,36.5 39.2,37.5 38.3,38.4 C37.4,39.3 36.4,40.2 35.3,40.9 C34.2,41.6 33.1,42.3 31.9,42.8 C29.4,43.9 26.7,44.4 24,44.4 C21.3,44.4 18.6,43.9 16.1,42.8 C14.9,42.3 13.7,41.7 12.6,40.9 C11.5,40.2 10.5,39.3 9.6,38.4 C8.7,37.5 7.8,36.5 7.1,35.4 C6.4,34.3 5.7,33.2 5.2,31.9 C4.1,29.4 3.6,26.7 3.6,24 C3.6,21.3 4.1,18.6 5.2,16.1 C5.7,14.9 6.3,13.7 7.1,12.6 C7.8,11.5 8.7,10.5 9.6,9.6 C10.5,8.7 11.5,7.8 12.6,7.1 C13.7,6.4 14.8,5.7 16.1,5.2 C18.6,4.1 21.3,3.6 24,3.6 C26.7,3.6 29.4,4.1 31.9,5.2 C33.1,5.7 34.3,6.3 35.3,7.1 C36.4,7.8 37.4,8.7 38.3,9.6 C39.2,10.5 40.1,11.5 40.8,12.6 C41.5,13.7 42.2,14.8 42.7,16.1 C43.8,18.6 44.3,21.3 44.3,24 C44.3,26.7 43.8,29.4 42.7,31.9 C42.2,33.1 41.6,34.3 40.8,35.4 Z" id="Shape"></path>
      </g>
    </g>
  </g>
</svg>
